X: 1
T: My Jo
T: 8x32S 2C (Goldring 15 Social)
P: A Case Apart
C: Muriel Johnstone
C: from internet, arr. T. Traub 8-21-2014
K: D
M: 4/4
L: 1/16
|:A,4|"D"D4 F2D2 "G"B,3D "D"A,D3|"A"C3D E2F2 G4 F2E2|"D"D4 F2D2 "G"B,3D "D"A,2B2|"D"A3B d2F2 "A"A4 G2F2|
"G"G3F Ge3 "D"F3E Fd3|"Em"E3F GFED "A"C3D E3F|"D"A,4 FD3 "G"B,3D GB3|"A"A3B dc3 "D"d6:|
|:d2e2|"D"fa3 "A"ef3 "D"d4 A2d2|"A"c3d e2f2 g4 f2e2|"G"d3c Bd3 "D"A3G FA3|"G"GB,3 "D"F3D "A"E6 A,2|
"D"D4 A,2F2 "G"B,3D GB3|"D"A3B dc3 "Bm"d4 d2e2|"D"fa3 "A"ef3 "D"df3 "G"Bd3|"A"A3B dc3 "D"d6:|